src/components/00-materials/images-raw/Contamination.svg

<svg width="96" height="96" viewBox="0 0 96 96" fill="none" xmlns="http://www.w3.org/2000/svg">
<path d="M47.86 55.33C51.2289 55.33 53.96 52.5989 53.96 49.23C53.96 45.8611 51.2289 43.13 47.86 43.13C44.4911 43.13 41.76 45.8611 41.76 49.23C41.76 52.5989 44.4911 55.33 47.86 55.33Z" stroke="#00008F" stroke-width="2" stroke-linecap="round" stroke-linejoin="round"/>
<path d="M60.52 17.67C56.3805 16.0044 51.9528 15.1726 47.4911 15.2223C43.0293 15.2721 38.6213 16.2024 34.52 17.96L43.08 37.96C44.5551 37.3283 46.1404 36.9942 47.745 36.977C49.3496 36.9599 50.9418 37.26 52.43 37.86L60.52 17.67ZM36.64 54L16.64 62.57C18.3837 66.6786 20.9218 70.4023 24.1086 73.5273C27.2954 76.6523 31.068 79.1171 35.21 80.78L43.32 60.55C41.8287 59.9543 40.4704 59.0687 39.3237 57.9443C38.1771 56.82 37.2649 55.4794 36.64 54V54ZM59.36 54L79.36 62.57C77.6163 66.6786 75.0782 70.4023 71.8914 73.5273C68.7046 76.6523 64.932 79.1171 60.79 80.78L52.68 60.55C54.1713 59.9543 55.5296 59.0687 56.6763 57.9443C57.8229 56.82 58.7351 55.4794 59.36 54V54Z" stroke="#00008F" stroke-width="2" stroke-linecap="round" stroke-linejoin="round"/>
</svg>

<svg width="96" height="96" viewBox="0 0 96 96" fill="none" xmlns="http://www.w3.org/2000/svg"><path d="M47.86 55.33a6.1 6.1 0 100-12.2 6.1 6.1 0 000 12.2zM60.52 17.67a33.892 33.892 0 00-26 .29l8.56 20a12.182 12.182 0 019.35-.1l8.09-20.19zM36.64 54l-20 8.57a33.89 33.89 0 0018.57 18.21l8.11-20.23A12.14 12.14 0 0136.64 54v0zm22.72 0l20 8.57a33.89 33.89 0 01-18.57 18.21l-8.11-20.23A12.14 12.14 0 0059.36 54v0z" stroke="#00008F" stroke-width="2" stroke-linecap="round" stroke-linejoin="round"/></svg>
